art/standard/gamepad/luna/s.svg

<svg width="100px" height="100px" preserveAspectRatio="none" version="1.1" viewBox="0 0 100 100" xmlns="http://www.w3.org/2000/svg">
 <circle cx="50" cy="50" r="40.4" fill="#1b1b1b"/>
 <circle cx="50" cy="50" r="36.4" fill="#313131"/>
 <circle cx="50" cy="50" r="31" fill="#626262"/>
 <circle cx="50" cy="50" r="27" fill="#4f4f4f"/>
 <path d="m52.85 31.6h-5.8l-13.8 31.85h7.75l2.65-6.75h12.35l2.75 6.75h7.95l-13.85-31.85m0.8 19.15h-7.8l3.9-9.9z" fill="#c3c3c3"/>
</svg>

<svg xmlns="http://www.w3.org/2000/svg" version="1.1" xmlns:xlink="http://www.w3.org/1999/xlink" preserveAspectRatio="none" x="0px" y="0px" width="100px" height="100px" viewBox="0 0 100 100">
<defs/>

<g id="Luna">
<g>
<g>
<g>
<path fill="#1B1B1B" stroke="none" d="
M 78.6 21.4
Q 66.8 9.6 50 9.6 33.25 9.6 21.35 21.4 9.55 33.25 9.55 50 9.55 66.75 21.35 78.6
L 21.35 78.65
Q 33.25 90.45 50 90.45 66.75 90.45 78.55 78.65
L 78.6 78.6
Q 90.45 66.75 90.45 50 90.45 33.2 78.55 21.4
L 78.6 21.4
M 50 13.6
Q 65.1 13.6 75.75 24.25 86.45 34.9 86.45 50 86.45 65.1 75.75 75.8 65.1 86.45 50 86.45 34.9 86.45 24.2 75.8
L 24.15 75.8
Q 13.55 65.1 13.55 50 13.55 34.9 24.15 24.25
L 24.2 24.2
Q 34.9 13.6 50 13.6 Z"/>

<path fill="#313131" stroke="none" d="
M 75.75 24.25
Q 65.1 13.6 50 13.6 34.9 13.6 24.2 24.2
L 24.15 24.25
Q 13.55 34.9 13.55 50 13.55 65.1 24.15 75.8
L 24.2 75.8
Q 34.9 86.45 50 86.45 65.1 86.45 75.75 75.8 86.45 65.1 86.45 50 86.45 34.9 75.75 24.25
M 71.9 28.05
L 71.95 28.05
Q 81 37.1 81 50 81 62.85 71.95 71.95 62.85 81 50 81 37.1 81 28.05 71.95
L 28.05 71.9
Q 19 62.8 19 50 19 37.15 28.05 28.05 37.15 19 50 19 62.8 19 71.9 28.05 Z"/>

<path fill="#626262" stroke="none" d="
M 71.95 28.05
L 71.9 28.05
Q 62.8 19 50 19 37.15 19 28.05 28.05 19 37.15 19 50 19 62.8 28.05 71.9
L 28.05 71.95
Q 37.1 81 50 81 62.85 81 71.95 71.95 81 62.85 81 50 81 37.1 71.95 28.05
M 50 23
Q 61.2 23 69.1 30.9 77 38.8 77 50 77 61.15 69.1 69.1 61.15 77 50 77 38.8 77 30.9 69.1 23 61.2 23 50 23 38.8 30.85 30.9
L 30.9 30.85
Q 38.8 23 50 23 Z"/>

<path fill="#4F4F4F" stroke="none" d="
M 69.1 30.9
Q 61.2 23 50 23 38.8 23 30.9 30.85
L 30.85 30.9
Q 23 38.8 23 50 23 61.2 30.9 69.1 38.8 77 50 77 61.15 77 69.1 69.1 77 61.15 77 50 77 38.8 69.1 30.9
M 47.05 31.6
L 52.85 31.6 66.7 63.45 58.75 63.45 56 56.7 43.65 56.7 41 63.45 33.25 63.45 47.05 31.6
M 45.85 50.75
L 53.65 50.75 49.75 40.85 45.85 50.75 Z"/>

<path fill="#C3C3C3" stroke="none" d="
M 52.85 31.6
L 47.05 31.6 33.25 63.45 41 63.45 43.65 56.7 56 56.7 58.75 63.45 66.7 63.45 52.85 31.6
M 53.65 50.75
L 45.85 50.75 49.75 40.85 53.65 50.75 Z"/>
</g>
</g>
</g>
</g>
</svg>
